;FLAVOR:Marlin
;TIME:7482
;Filament used: 4.08278m
;Layer height: 0.2
;MINX:34.902
;MINY:88.95
;MINZ:0.2
;MAXX:170.521
;MAXY:172.043
;MAXZ:20.2
;Generated with Cura_SteamEngine main
M82 ;absolute extrusion mode
; Ender 3 Custom Start G-code
G92 E0 ; Reset Extruder
G28 ; Home all axes
M104 S175 ; Start heating up the nozzle most of the way
M190 S60 ; Start heating the bed, wait until target temperature reached
M109 S200 ; Finish heating the nozzle
G1 Z2.0 F3000 ; Move Z Axis up little to prevent scratching of Heat Bed
G1 X0.1 Y20 Z0.3 F5000.0 ; Move to start position
G1 X0.1 Y200.0 Z0.3 F1500.0 E15 ; Draw the first line
G1 X0.4 Y200.0 Z0.3 F5000.0 ; Move to side a little
G1 X0.4 Y20 Z0.3 F1500.0 E30 ; Draw the second line
G92 E0 ; Reset Extruder
G1 Z2.0 F3000 ; Move Z Axis up little to prevent scratching of Heat Bed
G1 X5 Y20 Z0.3 F5000.0 ; Move over to prevent blob squish
G92 E0
G92 E0
G1 F1500 E-6.5
;LAYER_COUNT:101
;LAYER:0
M107
G0 F6000 X45.233 Y98.756 Z0.2
G0 X37.074 Y106.766
;TYPE:SKIRT
G1 F1500 E0
G1 F1200 X37.506 Y105.933 E0.03121
G1 X38.008 Y105.141 E0.0624
G1 X38.422 Y104.582 E0.08553
G1 X39.162 Y103.654 E0.12501
G1 X39.866 Y102.813 E0.16149
G1 X40.498 Y102.12 E0.19268
G1 X41.187 Y101.484 E0.22387
G1 X41.739 Y101.046 E0.24731
G1 X42.734 Y100.311 E0.28845
G1 X43.612 Y99.696 E0.32411
G1 X44.403 Y99.192 E0.3553
G1 X45.233 Y98.756 E0.38648
G1 X46.098 Y98.393 E0.41769
G1 X46.776 Y98.166 E0.44147
G1 X47.872 Y97.84 E0.4795
G1 X48.669 Y97.618 E0.50701
G1 X49.482 Y97.404 E0.53498
G1 X50.399 Y97.204 E0.56619
G1 X51.022 Y97.115 E0.58712
G1 X52.077 Y96.998 E0.62243
G1 X52.753 Y96.94 E0.645
G1 X53.69 Y96.9 E0.67619
G1 X54.297 Y96.917 E0.69639
G1 X55.374 Y96.976 E0.73226
G1 X58.028 Y97.085 E0.82061
G1 X60.509 Y97.116 E0.90313
G1 X63.077 Y97.075 E0.98855
G1 X65.549 Y96.966 E1.07085
G1 X68.08 Y96.783 E1.15525
G1 X70.549 Y96.533 E1.23779
G1 X73.093 Y96.203 E1.32312
G1 X75.545 Y95.814 E1.40569
G1 X78.047 Y95.346 E1.49035
G1 X80.469 Y94.821 E1.57278
G1 X82.917 Y94.216 E1.65665
G1 X85.361 Y93.538 E1.74101
G1 X87.8 Y92.787 E1.82589
G1 X90.152 Y91.99 E1.90848
G1 X92.496 Y91.121 E1.99163
G1 X94.872 Y90.163 E2.07684
G1 X95.717 Y89.81 E2.1073
G1 X96.597 Y89.485 E2.1385
G1 X97.502 Y89.237 E2.16971
G1 X98.424 Y89.067 E2.20089
G1 X99.651 Y88.963 E2.24185
G1 X100.28 Y88.95 E2.26277
G1 X104.379 Y88.95 E2.39911
G1 X105.246 Y88.961 E2.42794
G1 X106.154 Y88.995 E2.45817
G1 X108.692 Y89.068 E2.54261
G1 X111.216 Y89.068 E2.62656
G1 X113.792 Y88.996 E2.71227
G1 X114.3 Y88.973 E2.72919
G1 X115.236 Y88.95 E2.76033
G1 X119.5 Y88.951 E2.90215
G1 X120.201 Y88.961 E2.92547
G1 X121.137 Y89.014 E2.95665
G1 X122.066 Y89.147 E2.98786
G1 X122.979 Y89.359 E3.01904
G1 X123.872 Y89.647 E3.05025
G1 X124.736 Y90.011 E3.08143
G1 X125.567 Y90.447 E3.11264
G1 X126.357 Y90.952 E3.14383
G1 X127.101 Y91.522 E3.175
G1 X127.794 Y92.154 E3.20619
G1 X128.431 Y92.843 E3.2374
G1 X129.007 Y93.583 E3.26859
G1 X129.518 Y94.37 E3.2998
G1 X130.065 Y95.424 E3.3393
G1 X130.341 Y96.034 E3.36157
G1 X131.45 Y98.393 E3.44827
G1 X132.604 Y100.677 E3.53338
G1 X133.789 Y102.867 E3.6162
G1 X135.039 Y105.029 E3.69926
G1 X136.374 Y107.193 E3.78383
G1 X137.75 Y109.291 E3.86728
G1 X139.181 Y111.34 E3.9504
G1 X140.693 Y113.381 E4.03488
G1 X142.239 Y115.35 E4.11815
G1 X143.86 Y117.298 E4.20244
G1 X145.52 Y119.181 E4.28593
G1 X147.243 Y121.03 E4.36999
G1 X148.995 Y122.804 E4.45292
G1 X150.829 Y124.558 E4.53732
G1 X152.7 Y126.251 E4.62125
G1 X154.595 Y127.87 E4.70414
G1 X156.552 Y129.447 E4.78774
G1 X159.273 Y131.5 E4.90111
G1 X159.878 Y131.941 E4.92601
G1 X161.728 Y133.32 E5.00275
G1 X163.825 Y134.795 E5.08803
G1 X165.608 Y135.983 E5.15929
G1 X166.366 Y136.535 E5.19047
G1 X167.074 Y137.15 E5.22167
G1 X167.727 Y137.824 E5.25288
G1 X168.32 Y138.55 E5.28406
G1 X168.849 Y139.324 E5.31524
G1 X169.31 Y140.141 E5.34644
G1 X169.701 Y140.994 E5.37765
G1 X170.017 Y141.877 E5.40884
G1 X170.256 Y142.784 E5.44004
G1 X170.418 Y143.708 E5.47124
G1 X170.509 Y144.95 E5.51266
G1 X170.521 Y145.729 E5.53857
G1 X170.514 Y156.271 E5.8892
G1 X170.504 Y156.928 E5.91106
G1 X170.449 Y157.865 E5.94227
G1 X170.316 Y158.793 E5.97345
G1 X170.103 Y159.706 E6.00464
G1 X169.814 Y160.599 E6.03585
G1 X169.45 Y161.463 E6.06704
G1 X169.013 Y162.293 E6.09824
G1 X168.507 Y163.083 E6.12944
G1 X167.936 Y163.826 E6.16061
G1 X167.303 Y164.519 E6.19182
G1 X166.614 Y165.155 E6.22301
G1 X165.873 Y165.73 E6.25421
G1 X165.408 Y166.043 E6.27285
G1 X164.716 Y166.483 E6.30012
G1 X162.579 Y167.883 E6.38509
G1 X159.966 Y169.716 E6.49126
G1 X159.64 Y169.952 E6.50464
G1 X158.858 Y170.47 E6.53584
G1 X158.035 Y170.919 E6.56702
G1 X157.177 Y171.297 E6.5982
G1 X156.289 Y171.6 E6.62941
G1 X155.379 Y171.826 E6.6606
G1 X154.453 Y171.974 E6.69179
G1 X153.517 Y172.043 E6.723
G1 X152.58 Y172.032 E6.75417
G1 X151.646 Y171.94 E6.78539
G1 X150.934 Y171.816 E6.80942
G1 X148.319 Y171.27 E6.89827
G1 X145.864 Y170.83 E6.98123
G1 X143.359 Y170.454 E7.06548
G1 X140.862 Y170.15 E7.14914
G1 X138.114 Y169.896 E7.24093
G1 X137.29 Y169.788 E7.26857
G1 X136.256 Y169.612 E7.30346
G1 X127.362 Y167.95 E7.60439
G1 X126.563 Y167.791 E7.63149
G1 X125.909 Y167.64 E7.65381
G1 X125.14 Y167.437 E7.68027
G1 X111.579 Y163.653 E8.14854
G1 X110.987 Y163.479 E8.16906
G1 X110.364 Y163.275 E8.19086
G1 X109.352 Y162.909 E8.22666
G1 X104.337 Y161.008 E8.40504
G1 X103.245 Y160.568 E8.4442
G1 X90.471 Y154.983 E8.90789
G1 X89.981 Y154.761 E8.92579
G1 X89.344 Y154.446 E8.94942
G1 X88.062 Y153.76 E8.99778
G1 X82.284 Y150.518 E9.21814
G1 X80.842 Y149.683 E9.27357
G1 X71.599 Y144.175 E9.63143
G1 X69.752 Y143.039 E9.70356
G1 X68.735 Y142.403 E9.74345
G1 X66.589 Y141.146 E9.82617
G1 X64.346 Y139.916 E9.91125
G1 X62.135 Y138.783 E9.99388
G1 X59.835 Y137.685 E10.07865
G1 X57.575 Y136.684 E10.16086
G1 X55.191 Y135.709 E10.24653
G1 X52.855 Y134.829 E10.32956
G1 X50.485 Y134.012 E10.41294
G1 X48.055 Y133.248 E10.49766
G1 X46.982 Y132.848 E10.53575
G1 X45.901 Y132.376 E10.57498
G1 X44.882 Y131.902 E10.61236
G1 X44.049 Y131.47 E10.64357
G1 X43.256 Y130.969 E10.67477
G1 X42.686 Y130.546 E10.69837
G1 X41.727 Y129.781 E10.73918
G1 X40.902 Y129.089 E10.77499
G1 X40.21 Y128.456 E10.80618
G1 X39.574 Y127.767 E10.83737
G1 X39.148 Y127.23 E10.86017
G1 X38.461 Y126.3 E10.89862
G1 X37.806 Y125.367 E10.93654
G1 X37.3 Y124.578 E10.96771
G1 X36.864 Y123.747 E10.99893
G1 X36.582 Y123.098 E11.02246
G1 X36.256 Y122.275 E11.0519
G1 X35.76 Y120.924 E11.09977
G1 X35.476 Y120.03 E11.13097
G1 X35.27 Y119.115 E11.16217
G1 X35.148 Y118.236 E11.19168
G1 X34.954 Y116.265 E11.25755
G1 X34.902 Y115.329 E11.28873
G1 X34.93 Y114.392 E11.31991
G1 X35.022 Y113.562 E11.34769
G1 X35.181 Y112.516 E11.38288
G1 X35.386 Y111.34 E11.42258
G1 X35.587 Y110.424 E11.45377
G1 X35.864 Y109.528 E11.48496
G1 X36.133 Y108.849 E11.50926
G1 X36.599 Y107.785 E11.54789
G1 X37.074 Y106.766 E11.58528
G1 F1500 E5.08528
G0 F6000 X35.701 Y115.285
G1 F1500 E11.58528
G1 F1200 X35.733 Y114.383 E11.6153
G1 X35.813 Y113.681 E11.6388
G1 X35.93 Y112.898 E11.66513
G1 X36.175 Y111.477 E11.71309
G1 X36.369 Y110.595 E11.74313
G1 X36.64 Y109.734 E11.77315
G1 X36.867 Y109.167 E11.79347
G1 X37.324 Y108.123 E11.83137
G1 X37.799 Y107.104 E11.86876
G1 X38.216 Y106.303 E11.8988
G1 X38.703 Y105.542 E11.92885
G1 X39.049 Y105.079 E11.94807
G1 X39.602 Y104.381 E11.97769
G1 X40.48 Y103.327 E12.02332
G1 X41.089 Y102.661 E12.05334
G1 X41.756 Y102.051 E12.0834
G1 X42.216 Y101.688 E12.10289
G1 X42.96 Y101.135 E12.13372
G1 X44.071 Y100.352 E12.17893
G1 X44.833 Y99.867 E12.20897
G1 X45.635 Y99.451 E12.23902
G1 X46.47 Y99.108 E12.26904
G1 X47.005 Y98.932 E12.28778
G1 X47.906 Y98.663 E12.31905
G1 X49.03 Y98.349 E12.35787
G1 X49.685 Y98.177 E12.38039
G1 X50.568 Y97.987 E12.41043
G1 X51.114 Y97.909 E12.42878
G1 X51.855 Y97.824 E12.45358
G1 X52.821 Y97.737 E12.48584
G1 X53.723 Y97.7 E12.51587
G1 X54.253 Y97.715 E12.5335
G1 X55.442 Y97.78 E12.57311
G1 X57.985 Y97.885 E12.65776
G1 X60.512 Y97.916 E12.74182
G1 X63.089 Y97.875 E12.82754
G1 X65.607 Y97.764 E12.91137
G1 X68.146 Y97.58 E12.99604
G1 X70.663 Y97.326 E13.08018
G1 X73.178 Y97 E13.16453
G1 X75.681 Y96.603 E13.24882
G1 X78.213 Y96.128 E13.3345
G1 X80.636 Y95.604 E13.41695
G1 X83.138 Y94.985 E13.50268
G1 X85.59 Y94.305 E13.58731
G1 X88.018 Y93.558 E13.6718
G1 X90.434 Y92.738 E13.75666
G1 X92.788 Y91.865 E13.84017
G1 X95.183 Y90.9 E13.92605
G1 X96.026 Y90.548 E13.95643
G1 X96.874 Y90.237 E13.98647
G1 X97.746 Y90.002 E14.01651
G1 X98.635 Y89.845 E14.04654
G1 X99.673 Y89.763 E14.08117
G1 X100.28 Y89.75 E14.10136
G1 X104.379 Y89.75 E14.23769
G1 X105.235 Y89.761 E14.26617
G1 X106.095 Y89.793 E14.29479
G1 X108.704 Y89.868 E14.3816
G1 X111.238 Y89.868 E14.46588
G1 X113.81 Y89.796 E14.55146
G1 X114.324 Y89.772 E14.56858
G1 X115.236 Y89.75 E14.59892
G1 X119.488 Y89.751 E14.74034
G1 X120.189 Y89.761 E14.76366
G1 X121.091 Y89.814 E14.79371
G1 X121.984 Y89.946 E14.82374
G1 X122.863 Y90.157 E14.8538
G1 X123.719 Y90.445 E14.88384
G1 X124.546 Y90.807 E14.91387
G1 X125.338 Y91.241 E14.9439
G1 X126.088 Y91.744 E14.97394
G1 X126.791 Y92.311 E15.00398
G1 X127.441 Y92.937 E15.03399
G1 X128.034 Y93.619 E15.06405
G1 X128.563 Y94.351 E15.09409
G1 X129.026 Y95.126 E15.12412
G1 X129.336 Y95.754 E15.14741
G1 X129.617 Y96.374 E15.17005
G1 X130.733 Y98.748 E15.2573
G1 X131.888 Y101.034 E15.34249
G1 X133.086 Y103.247 E15.42619
G1 X134.367 Y105.463 E15.51132
G1 X135.701 Y107.625 E15.59581
G1 X137.084 Y109.734 E15.6797
G1 X138.531 Y111.806 E15.76375
G1 X140.052 Y113.86 E15.84876
G1 X141.627 Y115.865 E15.93356
G1 X143.245 Y117.809 E16.01768
G1 X144.936 Y119.728 E16.10276
G1 X146.67 Y121.589 E16.18736
G1 X148.42 Y123.361 E16.27019
G1 X150.286 Y125.146 E16.35608
G1 X152.155 Y126.837 E16.43991
G1 X154.12 Y128.515 E16.52585
G1 X156.052 Y130.073 E16.6084
G1 X158.791 Y132.139 E16.72251
G1 X159.399 Y132.582 E16.74753
G1 X161.257 Y133.967 E16.82461
G1 X163.337 Y135.431 E16.90921
G1 X165.165 Y136.648 E16.98225
G1 X165.894 Y137.182 E17.0123
G1 X166.572 Y137.777 E17.04231
G1 X167.196 Y138.431 E17.07237
G1 X167.759 Y139.137 E17.10241
G1 X168.257 Y139.89 E17.13243
G1 X168.687 Y140.684 E17.16246
G1 X169.045 Y141.513 E17.1925
G1 X169.329 Y142.371 E17.22256
G1 X169.535 Y143.25 E17.25259
G1 X169.662 Y144.144 E17.28262
G1 X169.71 Y144.964 E17.30994
G1 X169.72 Y145.549 E17.3294
G1 X169.714 Y156.259 E17.68562
G1 X169.704 Y156.916 E17.70747
G1 X169.65 Y157.818 E17.73752
G1 X169.517 Y158.711 E17.76755
G1 X169.305 Y159.589 E17.79759
G1 X169.017 Y160.445 E17.82763
G1 X168.653 Y161.272 E17.85769
G1 X168.219 Y162.063 E17.88769
G1 X167.716 Y162.813 E17.91773
G1 X167.148 Y163.516 E17.94779
G1 X166.521 Y164.165 E17.9778
G1 X165.838 Y164.757 E18.00787
G1 X164.979 Y165.368 E18.04293
G1 X164.292 Y165.805 E18.07001
G1 X162.11 Y167.234 E18.15676
G1 X159.495 Y169.068 E18.26299
G1 X159.17 Y169.304 E18.27635
G1 X158.417 Y169.802 E18.30638
G1 X157.622 Y170.231 E18.33643
G1 X156.792 Y170.587 E18.36646
G1 X155.934 Y170.869 E18.3965
G1 X155.055 Y171.074 E18.42652
G1 X154.161 Y171.201 E18.45656
G1 X153.259 Y171.248 E18.4866
G1 X152.356 Y171.215 E18.51665
G1 X151.098 Y171.033 E18.55893
G1 X148.487 Y170.488 E18.64764
G1 X145.981 Y170.039 E18.73232
G1 X143.466 Y169.662 E18.8169
G1 X140.964 Y169.357 E18.90074
G1 X138.188 Y169.1 E18.99346
G1 X137.423 Y169 E19.01912
G1 X136.573 Y168.856 E19.0478
G1 X127.386 Y167.14 E19.35864
G1 X126.72 Y167.007 E19.38123
G1 X126.114 Y166.866 E19.40192
G1 X125.207 Y166.626 E19.43313
G1 X111.94 Y162.924 E19.89125
G1 X111.213 Y162.711 E19.91644
G1 X110.634 Y162.522 E19.9367
G1 X109.635 Y162.161 E19.97203
G1 X104.632 Y160.264 E20.14999
G1 X103.565 Y159.835 E20.18824
G1 X90.925 Y154.309 E20.64707
G1 X90.312 Y154.032 E20.66944
G1 X89.72 Y153.741 E20.69138
G1 X88.644 Y153.167 E20.73195
G1 X82.556 Y149.752 E20.96411
G1 X81.251 Y148.996 E21.01428
G1 X72.139 Y143.567 E21.36706
G1 X70.176 Y142.361 E21.44368
G1 X69.137 Y141.711 E21.48445
G1 X66.967 Y140.44 E21.56809
G1 X64.766 Y139.233 E21.65158
G1 X62.459 Y138.051 E21.7378
G1 X60.202 Y136.973 E21.82099
G1 X57.843 Y135.929 E21.90679
G1 X55.491 Y134.967 E21.99131
G1 X53.145 Y134.083 E22.07469
G1 X50.733 Y133.251 E22.15955
G1 X48.295 Y132.485 E22.24455
G1 X47.3 Y132.114 E22.27987
G1 X46.487 Y131.762 E22.30934
G1 X45.219 Y131.176 E22.3558
G1 X44.418 Y130.76 E22.38582
G1 X43.657 Y130.274 E22.41585
G1 X43.183 Y129.92 E22.43552
G1 X42.241 Y129.168 E22.47561
G1 X41.416 Y128.476 E22.51143
G1 X40.75 Y127.865 E22.54149
G1 X40.141 Y127.198 E22.57153
G1 X39.789 Y126.752 E22.59043
G1 X39.282 Y126.071 E22.61867
G1 X38.461 Y124.908 E22.66601
G1 X37.975 Y124.146 E22.69608
G1 X37.559 Y123.345 E22.7261
G1 X37.326 Y122.803 E22.74572
G1 X36.899 Y121.716 E22.78456
G1 X36.511 Y120.651 E22.82226
G1 X36.24 Y119.789 E22.85231
G1 X36.046 Y118.907 E22.88235
G1 X35.944 Y118.158 E22.90749
G1 X35.75 Y116.187 E22.97336
G1 X35.701 Y115.285 E23.00341
G0 F6000 X35.302 Y115.307
G1 F1200 X35.331 Y114.387 E23.03402
G1 X35.417 Y113.621 E23.05966
G1 X35.575 Y112.585 E23.09452
G1 X35.78 Y111.409 E23.13422
G1 X35.978 Y110.509 E23.16487
G1 X36.252 Y109.631 E23.19546
G1 X36.5 Y109.008 E23.21777
G1 X36.846 Y108.211 E23.24666
G1 X37.437 Y106.935 E23.29343
G1 X37.861 Y106.118 E23.32405
G1 X38.355 Y105.341 E23.35467
G1 X38.736 Y104.831 E23.37585
G1 X39.469 Y103.911 E23.41497
G1 X40.173 Y103.07 E23.45145
G1 X40.794 Y102.39 E23.48208
G1 X41.472 Y101.767 E23.5127
G1 X41.978 Y101.367 E23.53416
G1 X42.964 Y100.639 E23.57492
G1 X43.842 Y100.024 E23.61058
G1 X44.618 Y99.529 E23.64119
G1 X45.434 Y99.103 E23.67181
G1 X46.284 Y98.75 E23.70242
G1 X46.891 Y98.549 E23.72368
G1 X47.792 Y98.28 E23.75496
G1 X48.777 Y98.004 E23.78898
G1 X49.584 Y97.791 E23.81674
G1 X50.484 Y97.596 E23.84737
G1 X51.068 Y97.512 E23.86699
G1 X51.809 Y97.427 E23.8918
G1 X52.787 Y97.339 E23.92446
G1 X53.707 Y97.3 E23.95509
G1 X54.275 Y97.316 E23.97399
G1 X55.407 Y97.378 E24.01169
G1 X58.007 Y97.485 E24.09824
G1 X60.51 Y97.516 E24.1815
G1 X63.064 Y97.475 E24.26646
G1 X65.596 Y97.364 E24.35075
G1 X68.113 Y97.181 E24.43469
G1 X70.604 Y96.93 E24.51796
G1 X73.135 Y96.601 E24.60285
G1 X75.616 Y96.208 E24.6864
G1 X78.134 Y95.736 E24.77161
G1 X80.545 Y95.214 E24.85365
G1 X83.048 Y94.595 E24.93941
G1 X85.48 Y93.92 E25.02336
G1 X87.867 Y93.186 E25.10642
G1 X90.314 Y92.356 E25.19236
G1 X92.648 Y91.491 E25.27515
G1 X95.028 Y90.532 E25.36049
G1 X95.872 Y90.179 E25.39092
G1 X96.736 Y89.861 E25.42154
G1 X97.624 Y89.619 E25.45215
G1 X98.53 Y89.456 E25.48277
G1 X99.662 Y89.363 E25.52055
G1 X100.28 Y89.35 E25.54111
G1 X104.379 Y89.35 E25.67744
G1 X105.241 Y89.361 E25.70611
G1 X106.053 Y89.392 E25.73314
G1 X108.715 Y89.468 E25.82172
G1 X111.227 Y89.468 E25.90527
G1 X113.779 Y89.397 E25.99018
G1 X114.09 Y89.381 E26.00054
G1 X115.236 Y89.35 E26.03867
G1 X119.494 Y89.351 E26.18029
G1 X120.195 Y89.361 E26.20361
G1 X121.114 Y89.414 E26.23422
G1 X122.025 Y89.547 E26.26484
G1 X122.921 Y89.758 E26.29546
G1 X123.796 Y90.046 E26.3261
G1 X124.642 Y90.409 E26.35672
G1 X125.453 Y90.844 E26.38733
G1 X126.224 Y91.348 E26.41796
G1 X126.948 Y91.917 E26.44859
G1 X127.62 Y92.546 E26.4792
G1 X128.235 Y93.231 E26.50982
G1 X128.788 Y93.967 E26.54044
G1 X129.275 Y94.749 E26.57108
G1 X129.701 Y95.589 E26.60241
G1 X129.986 Y96.219 E26.62541
G1 X131.081 Y98.549 E26.71103
G1 X132.239 Y100.841 E26.79644
G1 X133.445 Y103.07 E26.88074
G1 X134.696 Y105.233 E26.96384
G1 X136.033 Y107.401 E27.04856
G1 X137.432 Y109.533 E27.13337
G1 X138.865 Y111.585 E27.21662
G1 X140.372 Y113.62 E27.30084
G1 X141.932 Y115.607 E27.38486
G1 X143.551 Y117.552 E27.46903
G1 X145.228 Y119.455 E27.5534
G1 X146.949 Y121.301 E27.63734
G1 X148.716 Y123.091 E27.721
G1 X150.566 Y124.861 E27.80615
G1 X152.4 Y126.52 E27.88841
G1 X154.364 Y128.198 E27.97433
G1 X156.294 Y129.754 E28.05678
G1 X159.046 Y131.829 E28.17142
G1 X159.639 Y132.261 E28.19582
G1 X161.505 Y133.652 E28.27323
G1 X163.568 Y135.104 E28.35714
G1 X165.387 Y136.315 E28.42982
G1 X166.13 Y136.859 E28.46044
G1 X166.823 Y137.464 E28.49104
G1 X167.462 Y138.128 E28.52169
G1 X168.04 Y138.844 E28.5523
G1 X168.554 Y139.608 E28.58292
G1 X169 Y140.413 E28.61353
G1 X169.374 Y141.254 E28.64415
G1 X169.674 Y142.125 E28.67479
