;FLAVOR:Marlin
;TIME:923
;Filament used: 0.576346m
;Layer height: 0.2
;MINX:6.516
;MINY:6.516
;MINZ:0.2
;MAXX:228.484
;MAXY:228.484
;MAXZ:0.2
;Generated with Cura_SteamEngine main
M82 ;absolute extrusion mode
; Ender 3 Custom Start G-code
G92 E0 ; Reset Extruder
G28 ; Home all axes
M104 S175 ; Start heating up the nozzle most of the way
M190 S60 ; Start heating the bed, wait until target temperature reached
M109 S200 ; Finish heating the nozzle
G1 Z2.0 F3000 ; Move Z Axis up little to prevent scratching of Heat Bed
G1 X0.1 Y20 Z0.3 F5000.0 ; Move to start position
G1 X0.1 Y200.0 Z0.3 F1500.0 E15 ; Draw the first line
G1 X0.4 Y200.0 Z0.3 F5000.0 ; Move to side a little
G1 X0.4 Y20 Z0.3 F1500.0 E30 ; Draw the second line
G92 E0 ; Reset Extruder
G1 Z2.0 F3000 ; Move Z Axis up little to prevent scratching of Heat Bed
G1 X5 Y20 Z0.3 F5000.0 ; Move over to prevent blob squish
G92 E0
G92 E0
G1 F1500 E-6.5
;LAYER_COUNT:1
;LAYER:0
M107
G0 F6000 X16.893 Y10.1 Z0.2
;TYPE:SKIRT
G1 F1500 E0
G1 F1200 X17.374 Y9.632 E0.02232
G1 X18.074 Y9.007 E0.05353
G1 X18.824 Y8.444 E0.08472
G1 X19.619 Y7.947 E0.11591
G1 X20.454 Y7.52 E0.1471
G1 X21.322 Y7.165 E0.17829
G1 X22.217 Y6.886 E0.20947
G1 X23.133 Y6.683 E0.24068
G1 X24.063 Y6.56 E0.27188
G1 X25 Y6.516 E0.30308
G1 X25.937 Y6.552 E0.33427
G1 X26.868 Y6.668 E0.36547
G1 X27.785 Y6.863 E0.39665
G1 X28.683 Y7.135 E0.42786
G1 X29.554 Y7.482 E0.45904
G1 X30.392 Y7.903 E0.49024
G1 X31.191 Y8.393 E0.52141
G1 X31.946 Y8.95 E0.55262
G1 X32.593 Y9.514 E0.58116
G1 X33.052 Y9.954 E0.60231
G1 X54.492 Y31.394 E1.61078
G1 X56.385 Y33.234 E1.69859
G1 X58.201 Y34.903 E1.78062
G1 X60.139 Y36.583 E1.86593
G1 X62.072 Y38.168 E1.94907
G1 X64.068 Y39.711 E2.03298
G1 X66.096 Y41.188 E2.11642
G1 X68.199 Y42.631 E2.20125
G1 X70.293 Y43.984 E2.28417
G1 X72.435 Y45.282 E2.36748
G1 X74.617 Y46.522 E2.45095
G1 X76.864 Y47.716 E2.53558
G1 X79.102 Y48.825 E2.61865
G1 X81.398 Y49.883 E2.70274
G1 X83.742 Y50.883 E2.7875
G1 X86.046 Y51.792 E2.86988
G1 X88.42 Y52.651 E2.95385
G1 X90.804 Y53.437 E3.03734
G1 X93.226 Y54.161 E3.12142
G1 X95.641 Y54.809 E3.20458
G1 X98.115 Y55.397 E3.28916
G1 X100.599 Y55.915 E3.37355
G1 X103.036 Y56.352 E3.4559
G1 X105.524 Y56.725 E3.53958
G1 X108.042 Y57.031 E3.62394
G1 X110.555 Y57.264 E3.70788
G1 X113.035 Y57.423 E3.79054
G1 X115.557 Y57.513 E3.87447
G1 X118.083 Y57.533 E3.95849
G1 X120.611 Y57.48 E4.04259
G1 X123.117 Y57.358 E4.12604
G1 X125.617 Y57.163 E4.20944
G1 X128.132 Y56.897 E4.29356
G1 X130.639 Y56.56 E4.37769
G1 X133.085 Y56.159 E4.46013
G1 X135.592 Y55.677 E4.54504
G1 X138.006 Y55.141 E4.62729
G1 X140.492 Y54.514 E4.71256
G1 X142.891 Y53.836 E4.79548
G1 X145.303 Y53.081 E4.87954
G1 X147.687 Y52.259 E4.96341
G1 X150.036 Y51.375 E5.04689
G1 X152.357 Y50.425 E5.1303
G1 X154.667 Y49.403 E5.21432
G1 X156.94 Y48.318 E5.29809
G1 X159.175 Y47.174 E5.3816
G1 X161.402 Y45.953 E5.46607
G1 X163.573 Y44.681 E5.54976
G1 X165.684 Y43.363 E5.63253
G1 X167.776 Y41.974 E5.71605
G1 X169.866 Y40.499 E5.80114
G1 X171.863 Y39.002 E5.88415
G1 X173.835 Y37.436 E5.9679
G1 X175.756 Y35.819 E6.05142
G1 X177.653 Y34.128 E6.13594
G1 X179.482 Y32.404 E6.21954
G1 X180.495 Y31.407 E6.26681
G1 X201.803 Y10.1 E7.26905
G1 X202.284 Y9.632 E7.29137
G1 X202.984 Y9.007 E7.32258
G1 X203.734 Y8.444 E7.35377
G1 X204.529 Y7.947 E7.38496
G1 X205.364 Y7.52 E7.41615
G1 X206.232 Y7.165 E7.44734
G1 X207.127 Y6.886 E7.47852
G1 X208.043 Y6.683 E7.50973
G1 X208.973 Y6.56 E7.54093
G1 X209.91 Y6.516 E7.57213
G1 X210.847 Y6.552 E7.60332
G1 X211.778 Y6.668 E7.63452
G1 X212.695 Y6.863 E7.6657
G1 X213.593 Y7.135 E7.69691
G1 X214.464 Y7.482 E7.72809
G1 X215.302 Y7.903 E7.75929
G1 X216.101 Y8.393 E7.79046
G1 X216.856 Y8.95 E7.82166
G1 X217.484 Y9.497 E7.84936
G1 X217.962 Y9.953 E7.87134
G1 X224.9 Y16.892 E8.1977
G1 X225.368 Y17.373 E8.22002
G1 X225.993 Y18.073 E8.25124
G1 X226.556 Y18.823 E8.28243
G1 X227.053 Y19.618 E8.31361
G1 X227.48 Y20.453 E8.3448
G1 X227.835 Y21.321 E8.37599
G1 X228.114 Y22.216 E8.40718
G1 X228.317 Y23.132 E8.43838
G1 X228.44 Y24.062 E8.46958
G1 X228.484 Y24.999 E8.50078
G1 X228.448 Y25.936 E8.53197
G1 X228.332 Y26.867 E8.56317
G1 X228.137 Y27.784 E8.59435
G1 X227.865 Y28.682 E8.62556
G1 X227.518 Y29.553 E8.65675
G1 X227.097 Y30.391 E8.68794
G1 X226.607 Y31.19 E8.71911
G1 X226.05 Y31.945 E8.75032
G1 X225.509 Y32.567 E8.77774
G1 X225.052 Y33.046 E8.79976
G1 X203.618 Y54.48 E9.80795
G1 X201.787 Y56.364 E9.89533
G1 X200.08 Y58.222 E9.97924
G1 X198.41 Y60.149 E10.06406
G1 X196.836 Y62.067 E10.14658
G1 X195.276 Y64.085 E10.23141
G1 X193.819 Y66.086 E10.31374
G1 X192.378 Y68.186 E10.39845
G1 X191.016 Y70.294 E10.48192
G1 X189.728 Y72.418 E10.56454
G1 X188.465 Y74.64 E10.64955
G1 X187.285 Y76.862 E10.73323
G1 X186.168 Y79.114 E10.81684
G1 X185.113 Y81.407 E10.90079
G1 X184.13 Y83.707 E10.98398
G1 X183.202 Y86.064 E11.06823
G1 X182.351 Y88.418 E11.15149
G1 X181.56 Y90.817 E11.2355
G1 X180.843 Y93.212 E11.31865
G1 X180.184 Y95.669 E11.40326
G1 X179.602 Y98.117 E11.48695
G1 X179.088 Y100.587 E11.57087
G1 X178.647 Y103.042 E11.65383
G1 X178.275 Y105.52 E11.73717
G1 X177.968 Y108.048 E11.82187
G1 X177.736 Y110.552 E11.90551
G1 X177.577 Y113.034 E11.98823
G1 X177.487 Y115.557 E12.0722
G1 X177.467 Y118.083 E12.15622
G1 X177.52 Y120.611 E12.24032
G1 X177.642 Y123.118 E12.3238
G1 X177.837 Y125.617 E12.40717
G1 X178.103 Y128.133 E12.49132
G1 X178.441 Y130.645 E12.57562
G1 X178.839 Y133.073 E12.65745
G1 X179.322 Y135.583 E12.74247
G1 X179.873 Y138.059 E12.82683
G1 X180.478 Y140.463 E12.90928
G1 X181.158 Y142.872 E12.99254
G1 X181.923 Y145.313 E13.07762
G1 X182.741 Y147.685 E13.16107
G1 X183.629 Y150.046 E13.24497
G1 X184.581 Y152.372 E13.32856
G1 X185.59 Y154.649 E13.4114
G1 X186.683 Y156.943 E13.49591
G1 X187.826 Y159.174 E13.57929
G1 X189.046 Y161.399 E13.66369
G1 X190.323 Y163.58 E13.74775
G1 X191.625 Y165.666 E13.82953
G1 X193.026 Y167.776 E13.91377
G1 X194.504 Y169.87 E13.99902
G1 X195.993 Y171.857 E14.08161
G1 X197.564 Y173.835 E14.16562
G1 X199.195 Y175.773 E14.24987
G1 X200.86 Y177.641 E14.3331
G1 X202.593 Y179.479 E14.41712
G1 X203.595 Y180.498 E14.46465
G1 X224.9 Y201.803 E15.46677
G1 X225.368 Y202.284 E15.48909
G1 X225.993 Y202.984 E15.5203
G1 X226.556 Y203.734 E15.5515
G1 X227.053 Y204.529 E15.58268
G1 X227.48 Y205.364 E15.61387
G1 X227.835 Y206.232 E15.64506
G1 X228.114 Y207.127 E15.67624
G1 X228.317 Y208.043 E15.70745
G1 X228.44 Y208.973 E15.73865
G1 X228.484 Y209.91 E15.76985
G1 X228.448 Y210.847 E15.80104
G1 X228.332 Y211.778 E15.83224
G1 X228.137 Y212.695 E15.86342
G1 X227.865 Y213.593 E15.89463
G1 X227.518 Y214.464 E15.92582
G1 X227.097 Y215.302 E15.95701
G1 X226.607 Y216.101 E15.98818
G1 X226.05 Y216.856 E16.01939
G1 X225.492 Y217.496 E16.04763
G1 X225.052 Y217.956 E16.0688
G1 X218.117 Y224.89 E16.39498
G1 X217.628 Y225.366 E16.41767
G1 X216.928 Y225.991 E16.44889
G1 X216.178 Y226.554 E16.48008
G1 X215.383 Y227.051 E16.51126
G1 X214.548 Y227.479 E16.54247
G1 X213.68 Y227.834 E16.57366
G1 X212.785 Y228.114 E16.60485
G1 X211.869 Y228.316 E16.63605
G1 X210.94 Y228.44 E16.66722
G1 X210.003 Y228.484 E16.69842
G1 X209.066 Y228.448 E16.72961
G1 X208.135 Y228.332 E16.76081
G1 X207.217 Y228.138 E16.79202
G1 X206.32 Y227.866 E16.8232
G1 X205.449 Y227.519 E16.85438
G1 X204.61 Y227.098 E16.8856
G1 X203.811 Y226.608 E16.91678
G1 X203.056 Y226.051 E16.94798
G1 X202.382 Y225.462 E16.97775
G1 X201.941 Y225.038 E16.9981
G1 X180.496 Y203.593 E18.00681
G1 X178.636 Y201.786 E18.09306
G1 X176.761 Y200.064 E18.17773
G1 X174.88 Y198.432 E18.26056
G1 X172.91 Y196.818 E18.34526
G1 X170.949 Y195.302 E18.4277
G1 X168.904 Y193.812 E18.51186
G1 X166.801 Y192.369 E18.59669
G1 X164.707 Y191.016 E18.67961
G1 X162.565 Y189.718 E18.76291
G1 X160.383 Y188.478 E18.84639
G1 X158.136 Y187.284 E18.93102
G1 X155.898 Y186.175 E19.01409
G1 X153.602 Y185.117 E19.09817
G1 X151.258 Y184.117 E19.18293
G1 X148.954 Y183.208 E19.26531
G1 X146.58 Y182.349 E19.34928
G1 X144.196 Y181.563 E19.43277
G1 X141.774 Y180.839 E19.51685
G1 X139.359 Y180.191 E19.60002
G1 X136.885 Y179.603 E19.68459
G1 X134.401 Y179.085 E19.76899
G1 X131.964 Y178.648 E19.85134
G1 X129.476 Y178.275 E19.93501
G1 X126.958 Y177.969 E20.01938
G1 X124.445 Y177.736 E20.10332
G1 X121.965 Y177.577 E20.18597
G1 X119.443 Y177.487 E20.26991
G1 X116.917 Y177.467 E20.35393
G1 X114.389 Y177.52 E20.43803
G1 X111.883 Y177.642 E20.52148
G1 X109.383 Y177.837 E20.60488
G1 X106.868 Y178.103 E20.689
G1 X104.361 Y178.44 E20.77313
G1 X101.915 Y178.841 E20.85557
G1 X99.408 Y179.323 E20.94048
G1 X96.994 Y179.859 E21.02272
G1 X94.508 Y180.486 E21.108
G1 X92.109 Y181.164 E21.19091
G1 X89.697 Y181.919 E21.27498
G1 X87.313 Y182.741 E21.35885
G1 X84.964 Y183.625 E21.44233
G1 X82.643 Y184.575 E21.52574
G1 X80.333 Y185.597 E21.60975
G1 X78.06 Y186.682 E21.69353
G1 X75.825 Y187.826 E21.77703
G1 X73.6 Y189.046 E21.86143
G1 X71.427 Y190.319 E21.9452
G1 X69.316 Y191.637 E22.02797
G1 X67.224 Y193.026 E22.11149
G1 X65.134 Y194.501 E22.19657
G1 X63.137 Y195.998 E22.27958
G1 X61.165 Y197.564 E22.36334
G1 X59.244 Y199.181 E22.44685
G1 X57.347 Y200.872 E22.53138
G1 X55.518 Y202.596 E22.61497
G1 X54.505 Y203.593 E22.66225
G1 X33.207 Y224.89 E23.66402
G1 X32.718 Y225.366 E23.68671
G1 X32.018 Y225.991 E23.71792
G1 X31.268 Y226.554 E23.74912
G1 X30.473 Y227.051 E23.7803
G1 X29.638 Y227.479 E23.81151
G1 X28.77 Y227.834 E23.8427
G1 X27.875 Y228.114 E23.87389
G1 X26.959 Y228.316 E23.90509
G1 X26.03 Y228.44 E23.93626
G1 X25.093 Y228.484 E23.96746
G1 X24.156 Y228.448 E23.99865
G1 X23.225 Y228.332 E24.02985
G1 X22.307 Y228.138 E24.06106
G1 X21.41 Y227.866 E24.09223
G1 X20.539 Y227.519 E24.12342
G1 X19.7 Y227.098 E24.15464
G1 X18.901 Y226.608 E24.18581
G1 X18.146 Y226.051 E24.21702
G1 X17.49 Y225.479 E24.24597
G1 X17.031 Y225.039 E24.26712
G1 X10.1 Y218.107 E24.59315
G1 X9.632 Y217.626 E24.61547
G1 X9.007 Y216.926 E24.64669
G1 X8.444 Y216.176 E24.67788
G1 X7.947 Y215.381 E24.70906
G1 X7.52 Y214.546 E24.74025
G1 X7.165 Y213.678 E24.77144
G1 X6.886 Y212.783 E24.80262
G1 X6.683 Y211.867 E24.83383
G1 X6.56 Y210.937 E24.86503
G1 X6.516 Y210 E24.89623
G1 X6.552 Y209.063 E24.92742
G1 X6.668 Y208.132 E24.95862
G1 X6.863 Y207.215 E24.9898
G1 X7.135 Y206.317 E25.02101
G1 X7.482 Y205.446 E25.0522
G1 X7.903 Y204.608 E25.08339
G1 X8.393 Y203.809 E25.11456
G1 X8.95 Y203.054 E25.14577
G1 X9.508 Y202.414 E25.17401
G1 X9.948 Y201.954 E25.19518
G1 X31.404 Y180.498 E26.2044
G1 X33.217 Y178.632 E26.29094
G1 X34.934 Y176.763 E26.37535
G1 X36.568 Y174.88 E26.45827
G1 X38.182 Y172.91 E26.54298
G1 X39.698 Y170.949 E26.62542
G1 X41.188 Y168.904 E26.70957
G1 X42.623 Y166.813 E26.79392
G1 X43.988 Y164.7 E26.87759
G1 X45.279 Y162.57 E26.96043
G1 X46.532 Y160.364 E27.04481
G1 X47.715 Y158.138 E27.12866
G1 X48.825 Y155.898 E27.21181
G1 X49.883 Y153.602 E27.29589
G1 X50.883 Y151.258 E27.38065
G1 X51.792 Y148.954 E27.46303
G1 X52.651 Y146.58 E27.547
G1 X53.437 Y144.196 E27.63049
G1 X54.161 Y141.774 E27.71457
G1 X54.809 Y139.359 E27.79773
G1 X55.397 Y136.885 E27.88231
G1 X55.915 Y134.401 E27.9667
G1 X56.352 Y131.964 E28.04905
G1 X56.725 Y129.476 E28.13273
G1 X57.031 Y126.958 E28.21709
G1 X57.264 Y124.445 E28.30103
G1 X57.423 Y121.965 E28.38369
G1 X57.513 Y119.443 E28.46762
G1 X57.533 Y116.916 E28.55168
G1 X57.48 Y114.388 E28.63578
G1 X57.358 Y111.881 E28.71926
G1 X57.163 Y109.383 E28.80259
G1 X56.896 Y106.863 E28.88688
G1 X56.559 Y104.355 E28.97104
G1 X56.161 Y101.927 E29.05288
G1 X55.675 Y99.402 E29.1384
G1 X55.141 Y96.994 E29.22044
G1 X54.52 Y94.532 E29.30489
G1 X53.834 Y92.105 E29.38877
G1 X53.077 Y89.687 E29.47305
G1 X52.259 Y87.314 E29.55653
G1 X51.371 Y84.953 E29.64043
G1 X50.425 Y82.643 E29.72345
G1 X49.403 Y80.333 E29.80747
G1 X48.318 Y78.06 E29.89124
G1 X47.174 Y75.825 E29.97475
G1 X45.954 Y73.6 E30.05914
G1 X44.681 Y71.427 E30.14291
G1 X43.363 Y69.316 E30.22568
G1 X41.974 Y67.224 E30.3092
G1 X40.499 Y65.134 E30.39428
G1 X39.002 Y63.137 E30.47729
G1 X37.436 Y61.165 E30.56105
G1 X35.819 Y59.244 E30.64456
G1 X34.128 Y57.347 E30.72909
G1 X32.404 Y55.518 E30.81268
G1 X31.407 Y54.505 E30.85996
G1 X10.1 Y33.197 E31.8622
G1 X9.632 Y32.716 E31.88452
G1 X9.007 Y32.016 E31.91573
G1 X8.444 Y31.266 E31.94692
G1 X7.947 Y30.471 E31.9781
G1 X7.52 Y29.636 E32.0093
G1 X7.165 Y28.768 E32.04049
G1 X6.886 Y27.873 E32.07167
G1 X6.683 Y26.957 E32.10287
G1 X6.56 Y26.027 E32.13408
G1 X6.516 Y25.09 E32.16528
G1 X6.552 Y24.153 E32.19646
G1 X6.668 Y23.222 E32.22767
G1 X6.863 Y22.305 E32.25885
G1 X7.135 Y21.407 E32.29006
G1 X7.482 Y20.536 E32.32124
G1 X7.903 Y19.698 E32.35243
G1 X8.393 Y18.899 E32.38361
G1 X8.95 Y18.144 E32.41481
G1 X9.508 Y17.504 E32.44305
G1 X9.948 Y17.044 E32.46422
G1 X16.893 Y10.1 E32.79087
G0 F6000 X17.172 Y10.387
G1 F1200 X17.653 Y9.919 E32.81319
G1 X18.34 Y9.306 E32.84382
G1 X19.078 Y8.755 E32.87445
G1 X19.861 Y8.27 E32.90508
G1 X20.682 Y7.855 E32.93568
G1 X21.537 Y7.513 E32.96631
G1 X22.418 Y7.247 E32.99692
G1 X23.319 Y7.057 E33.02754
G1 X24.233 Y6.947 E33.05816
G1 X25.153 Y6.917 E33.08878
G1 X26.073 Y6.966 E33.11942
G1 X26.984 Y7.095 E33.15002
G1 X27.881 Y7.303 E33.18065
G1 X28.757 Y7.587 E33.21128
G1 X29.604 Y7.947 E33.24189
G1 X30.418 Y8.378 E33.27252
G1 X31.19 Y8.879 E33.30313
G1 X31.916 Y9.445 E33.33375
G1 X32.318 Y9.805 E33.3517
G1 X32.769 Y10.237 E33.37247
G1 X54.213 Y31.681 E34.38113
G1 X56.101 Y33.516 E34.4687
G1 X57.952 Y35.217 E34.55231
G1 X59.865 Y36.875 E34.63651
G1 X61.841 Y38.495 E34.7215
G1 X63.817 Y40.023 E34.80458
G1 X65.873 Y41.52 E34.88916
G1 X67.96 Y42.954 E34.97338
G1 X70.074 Y44.319 E35.05708
G1 X72.251 Y45.638 E35.14174
G1 X74.411 Y46.865 E35.22436
G1 X76.705 Y48.085 E35.31078
G1 X78.922 Y49.183 E35.39307
G1 X81.223 Y50.243 E35.47733
G1 X83.574 Y51.247 E35.56236
G1 X85.912 Y52.169 E35.64595
G1 X88.296 Y53.031 E35.73026
G1 X90.669 Y53.814 E35.81337
G1 X93.122 Y54.547 E35.89853
G1 X95.542 Y55.196 E35.98186
G1 X98.054 Y55.794 E36.06774
G1 X100.484 Y56.3 E36.1503
G1 X103.006 Y56.752 E36.23552
G1 X105.457 Y57.12 E36.31795
G1 X107.989 Y57.428 E36.40279
G1 X110.528 Y57.663 E36.4876
G1 X113.029 Y57.823 E36.57095
G1 X115.54 Y57.913 E36.65452
G1 X118.088 Y57.933 E36.73927
G1 X120.64 Y57.88 E36.82417
G1 X123.132 Y57.758 E36.90715
G1 X125.654 Y57.562 E36.99129
G1 X128.195 Y57.293 E37.07627
G1 X130.652 Y56.962 E37.15873
G1 X133.182 Y56.548 E37.244
G1 X135.655 Y56.072 E37.32776
G1 X138.11 Y55.527 E37.4114
G1 X140.602 Y54.899 E37.49688
G1 X143.004 Y54.22 E37.5799
G1 X145.426 Y53.462 E37.66431
G1 X147.811 Y52.639 E37.74822
G1 X150.192 Y51.743 E37.83284
G1 X152.522 Y50.79 E37.91657
G1 X154.836 Y49.766 E38.00073
G1 X157.102 Y48.684 E38.08425
G1 X159.385 Y47.515 E38.16956
G1 X161.574 Y46.316 E38.25257
G1 X163.782 Y45.023 E38.33767
G1 X165.895 Y43.703 E38.42054
G1 X168.022 Y42.29 E38.50547
G1 X170.091 Y40.83 E38.58969
G1 X172.106 Y39.32 E38.67344
G1 X174.099 Y37.737 E38.75809
G1 X176.014 Y36.126 E38.84133
G1 X177.91 Y34.435 E38.92583
G1 X179.754 Y32.697 E39.01011
G1 X180.775 Y31.693 E39.05773
G1 X202.082 Y10.387 E40.05993
G1 X202.563 Y9.919 E40.08225
G1 X203.25 Y9.306 E40.11287
G1 X203.988 Y8.755 E40.1435
G1 X204.771 Y8.27 E40.17414
G1 X205.592 Y7.855 E40.20473
G1 X206.447 Y7.513 E40.23536
G1 X207.328 Y7.247 E40.26597
G1 X208.229 Y7.057 E40.2966
G1 X209.143 Y6.947 E40.32722
G1 X210.063 Y6.917 E40.35783
G1 X210.983 Y6.966 E40.38847
G1 X211.894 Y7.095 E40.41908
G1 X212.791 Y7.303 E40.4497
G1 X213.667 Y7.587 E40.48033
G1 X214.514 Y7.947 E40.51094
G1 X215.328 Y8.378 E40.54158
G1 X216.1 Y8.879 E40.57219
G1 X216.826 Y9.445 E40.6028
G1 X217.21 Y9.788 E40.61993
G1 X217.679 Y10.236 E40.6415
G1 X224.613 Y17.171 E40.96768
G1 X225.081 Y17.652 E40.99
G1 X225.694 Y18.339 E41.02062
G1 X226.245 Y19.077 E41.05126
G1 X226.73 Y19.86 E41.08189
G1 X227.145 Y20.681 E41.11249
G1 X227.487 Y21.536 E41.14312
G1 X227.753 Y22.417 E41.17372
G1 X227.943 Y23.318 E41.20435
G1 X228.053 Y24.232 E41.23497
G1 X228.083 Y25.152 E41.26559
G1 X228.034 Y26.072 E41.29623
G1 X227.905 Y26.983 E41.32683
G1 X227.697 Y27.88 E41.35746
G1 X227.413 Y28.756 E41.38808
G1 X227.053 Y29.603 E41.4187
G1 X226.622 Y30.417 E41.44933
G1 X226.121 Y31.189 E41.47994
G1 X225.555 Y31.915 E41.51056
